X:1
T:Title
%%score ( 1 2 ) { 3 | 4 }
L:1/8
Q:1/4=103
M:3/4
K:Eb
V:1 treble nm="Grand Piano, Soprano"
V:2 treble 
V:3 bass nm="Choir Pad, Bass"
V:4 bass 
V:1
 [CE]>[=B,D] [CE]4 | [Ec]>[D=B] [Ec]4 | (3[CE][EB][Ac] [Ae]4 | [Ac]>[EB] [EA]4 | %4
w: By~William~Howard~Doane * *||||
 [CE]>[CE] [_DG]2 [DF]2 | [_DG]2 [EA]2 [EA]2 | [EB]2 [Ec]2 [EB]2 | [DA]2 [EB]4 | [EB]>[EB] [EB]4 | %9
w: |||||
 [Ec]>[E_d] [Ee]2 [Ee]2 | [Ec]2 [EA]2 [EA]2 | [EB]2 [Ec]4 | [EA]>[EA] [FA]4 | %13
w: ||||
 [EG]>[_DF] [CE]2 [EA]2 | [F_d]2 [Ec]2 [Ec]2 | [_DB]2 [CA]4 | [CE]>[=B,D] [CE]4 | %17
w: ||||
 [Ec]>[D=B] [Ec]4 | (3[CE][EA][Ac] [Ae]4 | [GB]2 [Ac]4 | [CE]>[=B,D] [CE]4 | [Ec]>[D=B] [Ec]4 | %22
w: |||||
 z2 e4 | [EG]2 [EA]4- | [EA]4 z2 |] %25
w: |||
V:2
 x6 | x6 | x6 | x6 | x6 | x6 | x6 | x6 | x6 | x6 | x6 | x6 | x6 | x6 | x6 | x6 | x6 | x6 | x6 | %19
 x6 | x6 | x6 | (3[CE][EA][Ac] A2 G2 | x6 | x6 |] %25
V:3
 A,>A, A,4 | A,>A, A,4 | (3A,[K:treble]CE C4 | E>_D C4 | A,>A, B,2 A,2 | B,2 C2 A,2 | G,2 A,2 B,2 | %7
 B,2 G,4 | G,>G, G,4 | A,>B,[K:treble] C2 C2 | A,2 C2 C2 | G,2 A,4 | C>C _D4 | A,>A, A,2 A,2 | %14
 A,2 A,2 G,2 | G,2 A,4 | A,>A, A,2 A,2 | A,>A, A,2 A,2 | (3A,[K:treble]CE C4 | E2 E4 | %20
 A,>A, A,2 A,2 | A,>A, A,2 A,2 | (3A,[K:treble]CE C2 B,2 | _D2 C4- | C4 z2 |] %25
V:4
 A,,>A,, A,,4 | z6 | (3:2:2z2 A, E,4 | E,>E, A,,4 | A,,>A,, E,2 E,2 | E,2 A,,2 C,2 | E,2 z2 G,2 | %7
 F,2 E,4 | E,>E, E,4 | E,>E, A,2 A,2 | z2 E,2 E,2 | E,2 A,,4 | A,,>A,, _D,4 | _D,>D, A,,2 C,2 | %14
 _D,2 E,2 E,2 | E,2 A,,4 | A,,>A,, A,,2 A,,2 | z6 | (3:2:2z2 A, E,4 | E,2 A,4 | A,,>A,, A,,2 A,,2 | %21
 z6 | (3:2:2z2 A, E,4 | E,2 A,,4- | A,,4 z2 |] %25

